X:1
T:Partita N° 3 for Keyboard
T:Partita N° 3 for Keyboard
T:Partita No.3 in A minor, BWV 827 
T:J.S.Bach
C:J.S.Bach
%%score { ( 1 3 4 5 ) | ( 2 6 7 ) }
L:1/8
Q:1/8=112
M:4/4
K:C
V:1 treble nm="Piano" snm="Pno."
V:3 treble 
V:4 treble 
V:5 treble 
V:2 bass 
V:6 bass 
V:7 bass 
V:1
"^Andante."!f!!>(! (Me-e/4d/4c/4B/4)!>)! | %1
!mf! (c/B/4A/4d/c/4B/4 e/d/4c/<f/A/4) ^G/4A/4B/4d/4-d- d-d/c/4B/4 | %2
 c2- c/>A/!>(!d/>F/ (PF!>)!E-) E/4=G/4F/4!<(!E/4A/B/4!<)!c/4 | %3
 (c2 c/4)A/4G/4^F/4B/c/4d/4- (d2 d/4)=f/4e/4d/4^g/a/4b/4 | %4
!f! e>a- a/>f/e/>d/!>(! PcB/A/!>)! !^!Me/>!mf!d/c/4B/4c/4e/4 | %5
 g/4d/4c/4B/4c/4e/4d/4c/4 a2-!<(! a/4d/4e/4^f/<g/a/4!<)! Mb2 | %6
!<(! b/4e/4^f/4^g/<a/b/4!<)! c'/>f/M=g/>a/!>(! ^d/>^c/B-!>)! B/4B/4c/4d/<c/B/4 | %7
"_cresc." e/4B/4=c/4=d/<Pc/B/4 z/4 A/4B/4c/<PB/A/4 z/4 e/4^f/4g/<Pf/e/4 z/4!f! e/4f/4g/<Pf/e/4 | %8
 z/4 =a/4g/4"_dim."^f/4g- gf/>^d/!>(! (d!>)!e) ::!mf! B/=d/4c/4B/4c/4d/ | %10
!<(! ^G/A/4B/4E/G/4B/4 d/c/4B/4!<)!=f/e/4d/4 c/d/4e/4-e"_cresc." A/4B/4c/4d/4e/4f/4=g/ | %11
!f! ^c/d/4e/4!<(!A/c/4e/4 g/f/4e/4!<)!_b/a/4g/4!>(! f/g/4a/4-a!>)!!<(! d/4f/4e/4d/4g/4a/4_b/-!<)! | %12
 b2!<(! c/4e/4d/4c/4f/4g/4!<)!a/- a2!<(! B/4d/4c/4_B/4e/4f/4g/-!<)! | %13
!mf! g/4g/4f/4e/<f/d/4-!>(! d/^c/4d/4e/4d/4!>)!c/ d2 z2 | %14
!<(! B/4A/4G/4^F/4G/4B/4d/4e/4!<)! =f2- f/4f/4e/4d/<e/c/4!>(! A2!>)! | %15
!p! A/4^G/4A/4B/4E/4d/4c/4B/4 c-c/4c/4B/4A/4 ^G2!<(! AB-!<)! | %16
"_cresc." B/4A/4B/4c/<PB/A/4 ^G/4B/4c/4d/<Pc/B/4!f! A/4e/4^f/4=g/<Pf/e/4 z/4!<(! a/4b/4c'/4!<)!!>(!b/4a/4^g/4!>)!a/4 | %17
 =d/4=f/4e/4d/4e/4"_dim."B/4c/4A/4 z/ A/B/>^G/!p! (GA) :| %18
V:2
 z/ A,,/C,/E,/ | A,B,CD E z/4 C/4B,/4A,/4 ^G,/A,/4B,/4E,/^F,/4G,/4 | %2
 A,CD=G, C z/4 C,/4E,/4G,/4 C3/2B,/4A,/4 | %3
 D z/4 D,/4^F,/4A,/4 D3/2C/4B,/4 E z/4 C/4B,/4A,/4 ^G,E, | %4
 G,A,- A,^G, A,/>E,/D,/4C,/4D,/4E,/4 A,,/>(A,/=G,/>F,/) | %5
 E,2 ^F,2 G,2- G,/4A,/4G,/4F,/4G,/4E,/4G,/4B,/4 | C2- C/>C/B,/>A,/!p! B,2 A,2 | %7
 G,2 ^F,2 z/ B,/G,/>B,/ ^C,/>E,/^A,/>^F,/ | CB,/>=A,/ B,2 E,,2 :: z/ E,,/^G,,/B,,/ | %10
 E,3 E,!>(! A,!>)!A,/4B,/4A,/4^G,/4 A,/>E,/C,/>E,/ | A,,3 A,, D,D,/4F,/4E,/4D,/4 _B,/>A,/B,/>G,/ | %12
"^dim. poco a poco" =C-C/4E,/4D,/4C,/4 A,/>G,/A,/>F,/ _B,-B,/4A,/4G,/4F,/4 E,/>F,/G,/>E,/ | %13
 ^CD A,A,,!p! A,(A,F,D,) | G,4 C, z z2 | F,^G,,A,,^F,, E,,/4B,,/4C,/4D,/4E, ^F,^G, | %16
 E,E,- E,E,- E,A, ^F,/>A,/^G,/>=F,/- | G,A, E,2 A,,2 :| %18
V:3
 x2 | x4 ^G- E- E x | z/4 B/4A/4^G/<A/E/4 F>D (DC) x3/4 E x/4 | %3
 ^F/G/4A/4-"_cresc."A x3/4 F x/4 ^G/A/4B/4-B x3/4 d- x/4 | d/4d/4c/4B/4c B2 x4 | %5
 z2 z/ c/d/>A/ B2 G z | z E A>G ^F/4G/4F/4E/4F/4^D/4E/4F/4 z F | x2 ^f2 G2 ^c'2 | x4 B2 :: x2 | %10
 x4 c2 x2 | x4 f2 x3/4 d x/4 | e/f/4g/4-=c- x2 d/e/4f/4-_B- x3/4 B x/4 | %13
 A2 G2- G/4G/4F/4E/4F/4G/4A/4F/4 D/4F/4A/4=B/4=c/4B/4A/4c/4 | %14
 x2 z/!mf! c/d/>B/ G2 G/4G/4=F/4E/<F/D/4 | %15
 B,E E/4A/4B/4c/4^D z z/4 =F/4E/4=D/4 z/4 F/4E/4D/4 z/4 F/4E/4D/4 | x6 ^d2 | x2 ED DC :| %18
V:4
 x2 | x9/2 B/- B- B x | x8 | ^F2 x2 ^G2 x2 | x8 | x8 | x8 | z E2 ^D E2 x2 | ^d>e c/4B/4A/-A A^G :: %9
 x2 | x5 A- x2 | x5 d2- x | z g x3/4 c3/2 z x11/4 | x8 | x8 | x8 | x8 | x4 E2 :| %18
V:5
 x2 | x5 G- G x | x8 | x D x3 E x2 | x8 | x8 | x8 | x8 | x6 :: x2 | x8 | x8 | x5 f x2 | x8 | x8 | %15
 x8 | x8 | x6 :| %18
V:6
 x2 | x8 | x8 | x6 ^G,2 | C,F,-D,E, A,2- A,/ z/ z | z G, z A, z D x2 | x8 | x8 | x2 B,B,, x2 :: %9
 x2 | z ^G,2 G, x4 | z ^C,2 C, x4 | x8 | z2 A,2- D,2 z2 | z D,B,,G,, C,2- C,/>^C,/D,/>E,/ | %15
 x4 E,,E,- E,2- | C2 D2 E2 x ^G,- | B,,C,/>D,/ E,E,, A,,,2 :| %18
V:7
 x2 | x8 | x8 | x8 | x2 F, x5 | x8 | x8 | x8 | x6 :: x2 | z2 B,2 MA,- x3 | z2 E,2 D,- x3 | x8 | %13
 x8 | x8 | x8 | A,2 B,2 C2 x2 | F, E, x4 :| %18

